X:13
T:Laurette. Dix.13
M:6/8
L:1/8
Q:3/8=120
S:Anon. MS dated 1811, from Dixon collection, Holton le Moor, Lincs.
R:jig
O:England;Lincolnshire;Holton le Moor
Z:vmp.R.Greig 2010 <http://www.village-music-project.org.uk>
K:Bb
F|B2B BAB|f2e c2c|dfB BAB|cdB cAF|
B2B BAB|f2e c2c|dfB cBc|B2c”tr”B2:|
|:F|F3FDF|[B3D3]BAB|c2c cBc|d3B2F|
F3 FDF|[B3D3]Bcd|dcA BG=E|FAG F2:|

